X:129
T:The Humours Of Tullycrine
R:hornpipe
M:4/4
L:1/8
K:Ador
|:G|EAAB cBcd|eaag e2dB|c2Ac BAGA|Bdde dBAG|
EAAB cBcd|eaag e2dB|c2Ac BAGA|1BAAG A3:|2BAAG A2Bd||
|:eaab aged|eaab aged|egga ged2|dgga gedB|
A3B B3d|eaag e2dB|c2Ac BAGA|1BAAG A2Bd:|2BAAG A3||

